src/icons/monitor.svg

<svg xmlns="http://www.w3.org/2000/svg" width="512" height="512" viewBox="0 0 512 512">
    <path d="M417.3 103.8H94.7c-4.6 0-8.6 3.8-8.6 8.4v201.6c0 4.7 3.9 8.4 8.6 8.4h322.8c4.6 0 8.6-3.8 8.6-8.4V112.2c-.2-4.6-4.1-8.4-8.8-8.4zm-15.7 194.3H110.4v-170h291.4V298h-.2v.1zm-110.3 97.1c21.2-.4 31.4-3 22-9.5-9.5-6.6-21.7-11.6-22-17.1-.3-2.7-1.3-34.1-1.3-34.1h-68s-1.2 31.3-1.3 34.1c-.4 5.4-12.5 10.5-22 17.1-9.5 6.6.7 9.1 22 9.5h70.6z"/>
</svg>

<?xml version="1.0" encoding="UTF-8"?>
<svg width="512px" height="512px" viewBox="0 0 512 512" version="1.1" xmlns="http://www.w3.org/2000/svg" xmlns:xlink="http://www.w3.org/1999/xlink">
    <!-- Generator: Sketch 62 (91390) - https://sketch.com -->
    <title>monitor</title>
    <desc>Created with Sketch.</desc>
    <g id="monitor" stroke="none" stroke-width="1" fill="none" fill-rule="evenodd">
        <path d="M417.3,103.8 L94.7,103.8 C90.1,103.8 86.1,107.6 86.1,112.2 L86.1,313.8 C86.1,318.5 90,322.2 94.7,322.2 L417.5,322.2 C422.1,322.2 426.1,318.4 426.1,313.8 L426.1,112.2 C425.9,107.6 422,103.8 417.3,103.8 Z M401.6,298.1 L110.4,298.1 L110.4,128.1 L401.8,128.1 L401.8,298 L401.6,298 L401.6,298.1 Z M291.3,395.2 C312.5,394.8 322.7,392.2 313.3,385.7 C303.8,379.1 291.6,374.1 291.3,368.6 C291,365.9 290,334.5 290,334.5 L222,334.5 C222,334.5 220.8,365.8 220.7,368.6 C220.3,374 208.2,379.1 198.7,385.7 C189.2,392.3 199.4,394.8 220.7,395.2 L291.3,395.2 L291.3,395.2 Z" id="Shape" fill="#000000" fill-rule="nonzero"></path>
    </g>
</svg>
